X:108
T:T015C- Moar Nein I Giberlan
S:Aird's Airs, II #166 [SITM #2577]
Q:1/4=60
L:1/4
M:2/4
J:1#
K:Adorian
AA3/4B/4|ed3/4B/4|Ad|B3/4G/4E|G3/4A/4G3/4B/4|e~B/G/|EG/A/|\
G/E/D/E/|GG|gd3/4g/|eg/f/|e3/4d/4B|d3/4e/4g3/4f/4|~ed/4B3/4|\
Ad|B/A/A|]

